src/assets/images/share-icon_old.svg

<svg fill="none" height="22" viewBox="0 0 24 22" width="24" xmlns="http://www.w3.org/2000/svg"><path d="m13.5762 15.9188-5.11-2.4793c-.49051.4332-1.11419.7274-1.79241.8457s-1.38063.0553-2.01866-.1811c-.63804-.2363-1.18314-.6354-1.56658-1.1469s-.58806-1.1125-.58806-1.7273c0-.6149.20462-1.2159.58806-1.72741.38344-.51152.92854-.91059 1.56658-1.14692.63803-.23632 1.34044-.29932 2.01866-.18105s1.3019.41252 1.79241.84565l5.11-2.47922c-.1753-.73146-.0487-1.4946.3566-2.14986s1.0621-1.15885 1.8505-1.41869 1.6555-.25856 2.4429.0036c.7874.26217 1.4424.7677 1.8452 1.42415.4028.65646.5266 1.41996.3486 2.1509s-.6458 1.38046-1.3179 1.82979-1.5035.66844-2.3423.61727c-.8387-.05118-1.6288-.36922-2.2256-.89597l-5.11 2.47926c.10193.4275.10193.8694 0 1.2969l5.11 2.4793c.5968-.5268 1.3869-.8448 2.2256-.896.8388-.0512 1.6702.1679 2.3423.6173.6721.4493 1.1399 1.0988 1.3179 1.8298.178.7309.0542 1.4944-.3486 2.1508-.4028.6565-1.0578 1.162-1.8452 1.4242s-1.6545.2634-2.4429.0036-1.4452-.7634-1.8505-1.4187-.5319-1.4184-.3566-2.1498z" fill="#000"/></svg>

<svg width="24" height="22" viewBox="0 0 24 22" fill="none" xmlns="http://www.w3.org/2000/svg">
<path d="M13.5762 15.9188L8.4662 13.4395C7.97569 13.8727 7.35201 14.1669 6.67379 14.2852C5.99557 14.4035 5.29316 14.3405 4.65513 14.1041C4.01709 13.8678 3.47199 13.4687 3.08855 12.9572C2.70511 12.4457 2.50049 11.8447 2.50049 11.2299C2.50049 10.615 2.70511 10.014 3.08855 9.50249C3.47199 8.99097 4.01709 8.5919 4.65513 8.35557C5.29316 8.11925 5.99557 8.05625 6.67379 8.17452C7.35201 8.29279 7.97569 8.58704 8.4662 9.02017L13.5762 6.54095C13.4009 5.80949 13.5275 5.04635 13.9328 4.39109C14.3381 3.73583 14.9949 3.23224 15.7833 2.9724C16.5717 2.71256 17.4388 2.71384 18.2262 2.976C19.0136 3.23817 19.6686 3.7437 20.0714 4.40015C20.4742 5.05661 20.598 5.82011 20.42 6.55105C20.242 7.28199 19.7742 7.93151 19.1021 8.38084C18.43 8.83017 17.5986 9.04928 16.7598 8.99811C15.9211 8.94693 15.131 8.62889 14.5342 8.10214L9.4242 10.5814C9.52613 11.0089 9.52613 11.4508 9.4242 11.8783L14.5342 14.3576C15.131 13.8308 15.9211 13.5128 16.7598 13.4616C17.5986 13.4104 18.43 13.6295 19.1021 14.0789C19.7742 14.5282 20.242 15.1777 20.42 15.9087C20.598 16.6396 20.4742 17.4031 20.0714 18.0595C19.6686 18.716 19.0136 19.2215 18.2262 19.4837C17.4388 19.7459 16.5717 19.7471 15.7833 19.4873C14.9949 19.2275 14.3381 18.7239 13.9328 18.0686C13.5275 17.4133 13.4009 16.6502 13.5762 15.9188Z" fill="black"/>
</svg>
